src/assets/icons/svg/bell.svg

<svg width="20" height="24" viewBox="0 0 20 24" fill="none" xmlns="http://www.w3.org/2000/svg">
<path d="M19.8793 17.8552C19.784 17.3462 19.2941 17.011 18.7852 17.1064C18.2763 17.2018 17.941 17.6916 18.0363 18.2005C18.1071 18.5781 17.9411 18.8471 17.8359 18.9739C17.731 19.1003 17.4977 19.3125 17.115 19.3125H2.88412C2.50139 19.3125 2.26814 19.1004 2.16319 18.9739C2.058 18.8471 1.89202 18.5781 1.9628 18.2005C2.22872 16.7815 2.7623 15.8482 3.2783 14.9455C3.90497 13.8494 4.55297 12.7159 4.55297 10.9687V9.56245C4.55297 6.60619 6.95592 4.16845 9.91087 4.12556H10.0881C13.0331 4.16836 15.428 6.60609 15.428 9.5625V10.9688C15.428 12.4558 15.9144 13.479 16.3704 14.3214C16.5401 14.6349 16.8626 14.8128 17.1957 14.8128C17.3464 14.8128 17.4993 14.7764 17.6411 14.6996C18.0965 14.4532 18.2658 13.8842 18.0193 13.4289C17.5657 12.5907 17.303 11.9194 17.303 10.9688V9.5625C17.303 7.63308 16.5557 5.81077 15.1986 4.43128C14.0356 3.24905 12.5423 2.51128 10.928 2.30766V0.9375C10.928 0.419719 10.5083 0 9.99051 0C9.47273 0 9.05301 0.419719 9.05301 0.9375V2.31042C5.46905 2.77542 2.67801 5.86786 2.67801 9.5625V10.9688C2.67801 12.2178 2.22459 13.0109 1.65056 14.015C1.08506 15.0042 0.444046 16.1254 0.119859 17.8552C-0.0348755 18.6809 0.184031 19.5251 0.720468 20.1714C1.25639 20.8172 2.04506 21.1875 2.88412 21.1875H7.19611C7.19611 22.7383 8.4578 24 10.0086 24C11.5594 24 12.8211 22.7383 12.8211 21.1875H17.115C17.9541 21.1875 18.7427 20.8172 19.2787 20.1714C19.8151 19.5252 20.034 18.6809 19.8793 17.8552ZM10.0086 22.125C9.49167 22.125 9.07111 21.7044 9.07111 21.1875H10.9461C10.9461 21.7044 10.5256 22.125 10.0086 22.125Z" fill="black"/>
</svg>

<?xml version="1.0" encoding="iso-8859-1"?>
<!-- Generator: Adobe Illustrator 23.1.0, SVG Export Plug-In . SVG Version: 6.00 Build 0)  -->
<svg version="1.1" id="&#x421;&#x43B;&#x43E;&#x439;_1"
	 xmlns="http://www.w3.org/2000/svg" xmlns:xlink="http://www.w3.org/1999/xlink" x="0px" y="0px" viewBox="0 0 20 24"
	 style="enable-background:new 0 0 20 24;" xml:space="preserve">
<path d="M19.879,17.855c-0.095-0.509-0.585-0.844-1.094-0.749s-0.844,0.585-0.749,1.094c0.071,0.378-0.095,0.647-0.2,0.773
	c-0.105,0.126-0.338,0.339-0.721,0.339H2.884c-0.383,0-0.616-0.212-0.721-0.339c-0.105-0.127-0.271-0.396-0.2-0.773
	c0.266-1.419,0.799-2.352,1.316-3.255c0.627-1.096,1.275-2.23,1.275-3.977V9.562c0-2.956,2.403-5.394,5.358-5.437h0.177
	c2.945,0.043,5.34,2.481,5.34,5.437v1.406c0,1.487,0.486,2.51,0.942,3.353c0.17,0.314,0.492,0.491,0.825,0.491
	c0.151,0,0.304-0.036,0.445-0.113c0.455-0.246,0.625-0.815,0.378-1.271c-0.454-0.838-0.716-1.509-0.716-2.46V9.563
	c0-1.929-0.747-3.752-2.104-5.131c-1.163-1.182-2.656-1.92-4.271-2.124v-1.37C10.928,0.42,10.508,0,9.991,0
	C9.473,0,9.053,0.42,9.053,0.938V2.31C5.469,2.775,2.678,5.868,2.678,9.563v1.406c0,1.249-0.453,2.042-1.027,3.046
	c-0.566,0.989-1.207,2.11-1.531,3.84c-0.155,0.826,0.064,1.67,0.601,2.316c0.536,0.646,1.325,1.016,2.164,1.016h4.312
	c0,1.551,1.262,2.813,2.812,2.813s2.813-1.262,2.813-2.813h4.294c0.839,0,1.628-0.37,2.164-1.016
	C19.815,19.525,20.034,18.681,19.879,17.855z M10.009,22.125c-0.517,0-0.937-0.421-0.937-0.938h1.875
	C10.946,21.704,10.526,22.125,10.009,22.125z"/>
</svg>
